X: 1
T: Polska efter Lars Orre Rot
R: Polska
Z: Håkan Lidén, 2009-02-05
O: Älvdalen, Dalarna
S: efter Lars Orre Rot
N: Finns på SMUS
M: 3/4
L: 1/8
K: C
G2 cc/e/ d2 | f2 ee/g/ f2 | a2 g/a/g/e/ gf | d2 f/a/f/d/ {d}c2 | G2 cc/e/ d2 | f2 ee/g/ f2 | 
a2 g/a/g/e/ gf | dB/d/ c4 :: g2 g/c'/c'/g/ ec | c2 B/e/d/B/ G2 | G2 AA/c/ B>d | 
^f2 aa/f/ g2 | g2 g/c'/c'/g/ ec | c2 B/e/d/B/ G2 | G2 AA/c/ B>d | dc {cB}c4 :|]

